!!!OTL: O gloriosa domina
**kern
*staff1
=--
*clefC3
*k[]
*M3/2
1e
1e
1e
=-
0e
1g
=-
0g
1g
=-
0a
1g
=-
0f
1g
=-
0g
1g
=-
0.g;
=-
!!linebreak:original
1g
1g
1g
=-
0g
1g
=-
0g
1c
=-
0d
1g
=-
0a
1g
=-
0f
1e
=-
0g
1g
=-
0.e
=-
*-
!!title: @{OTL}, @{GTL}, ed. @{ENC}
!!!pag:
!!!GTL: Hymnbook C
!!!EFL: 
!!!YEM: Creative Commons CC/BY/NC/SA 4.0
!!!ENC: Marcin Konik
!!!END: 2015-0m-dd
!!!EED: Marcin Konik
!!!EEV: 
!!!ONB: Encoded in vim by Marcin Konik
!!!CharacterEncoding: utf-8
!!!RDF**kern: l=long note in original notation
!!!RDF**kern: i=editorial accidental
!!muse2ps: z14jc180F
!!!COM: Anonim
!!!CDT: [?]
!!!TXO: Polish
!!!ODT: 
!!!GTL: Hymnbook C
!!!ARL: Opactwo św. Wojciecha, Staniątki 
!!!voices:	1
